packages/calcite-ui-icons/icons/filtered-find-add-path-16.svg

<?xml version="1.0" encoding="UTF-8"?><svg id="icons" xmlns="http://www.w3.org/2000/svg" viewBox="0 0 16 16"><defs><style>.cls-1{fill:none;}</style></defs><rect class="cls-1" width="16" height="16"/><path d="M7,7v-1H0v2l2.79999,3h.00482l.37054,4h.64929l.36926-4h.0061l2.79999-3v-1ZM3.85254,10.2002h-.70508l-1.30664-1.40039h3.31836l-1.30664,1.40039ZM6,8H1v-1h5v1ZM10.5,2h-.5v-1h.5c1.37842,0,2.5,1.12109,2.5,2.5v.5h1.17603l-1.67603,2.05817-1.67603-2.05817h1.17603v-.5c0-.82715-.67285-1.5-1.5-1.5ZM6,2.5c0-.82715.67285-1.5,1.5-1.5s1.5.67285,1.5,1.5-.67285,1.5-1.5,1.5-1.5-.67285-1.5-1.5ZM0,3.5c0-.82715.67285-1.5,1.5-1.5s1.5.67285,1.5,1.5-.67285,1.5-1.5,1.5-1.5-.67285-1.5-1.5ZM16,9.5c0-.82715-.67285-1.5-1.5-1.5-.44879,0-.84747.20209-1.12262.51544l-1.40753-.71692c.01959-.0965.03015-.19629.03015-.29852,0-.82715-.67285-1.5-1.5-1.5s-1.5.67285-1.5,1.5c0,.27631.08032.5321.21118.75464l-.95654.95654c-.22253-.13086-.47833-.21118-.75464-.21118-.82715,0-1.5.67285-1.5,1.5,0,.81519.6543,1.47736,1.46497,1.49646l.29718,1.20557c-.45276.25848-.76215.7403-.76215,1.29797,0,.82715.67285,1.5,1.5,1.5s1.5-.67285,1.5-1.5c0-.81427-.65295-1.47565-1.46234-1.49622l-.29767-1.20697c.4516-.25879.76001-.74005.76001-1.29681,0-.25989-.07239-.50085-.18915-.71417l.97498-.97498c.21332.11676.45428.18915.71417.18915.43726,0,.82776-.19128,1.10217-.49072l1.42462.72565c-.0155.08636-.02679.17432-.02679.26508,0,.59485.35077,1.10547.85388,1.34784l-.45001,2.16187c-.78168.05072-1.40387.69604-1.40387,1.4903,0,.82715.67285,1.5,1.5,1.5s1.5-.67285,1.5-1.5c0-.57837-.33258-1.07556-.81323-1.32574l.45581-2.18866c.75952-.07306,1.35742-.70728,1.35742-1.4856ZM8,11h-1v-1h1v1ZM11,8h-1v-1h1v1ZM14,10v-1h1v1h-1Z"/></svg>

<svg xmlns="http://www.w3.org/2000/svg" viewBox="0 0 16 16"><path fill="none" d="M0 0h16v16H0z"/><path d="M7 7V6H0v2l2.8 3h.005l.37 4h.65l.369-4H4.2L7 8V7zm-3.147 3.2h-.706L1.841 8.8h3.318l-1.306 1.4zM6 8H1V7h5v1zm4.5-6H10V1h.5C11.878 1 13 2.121 13 3.5V4h1.176L12.5 6.058 10.824 4H12v-.5c0-.827-.673-1.5-1.5-1.5zM6 2.5C6 1.673 6.673 1 7.5 1S9 1.673 9 2.5 8.327 4 7.5 4 6 3.327 6 2.5zm-6 1C0 2.673.673 2 1.5 2S3 2.673 3 3.5 2.327 5 1.5 5 0 4.327 0 3.5zm16 6c0-.827-.673-1.5-1.5-1.5a1.49 1.49 0 0 0-1.123.515L11.97 7.8A1.499 1.499 0 1 0 9 7.5c0 .276.08.532.211.755l-.956.956A1.483 1.483 0 0 0 7.5 9C6.673 9 6 9.673 6 10.5a1.5 1.5 0 0 0 1.465 1.496l.297 1.206C7.31 13.461 7 13.942 7 14.5c0 .827.673 1.5 1.5 1.5s1.5-.673 1.5-1.5a1.5 1.5 0 0 0-1.462-1.496l-.298-1.207c.452-.259.76-.74.76-1.297 0-.26-.072-.5-.19-.714l.976-.975c.213.117.454.189.714.189.437 0 .828-.191 1.102-.49l1.425.725A1.494 1.494 0 0 0 13 9.5c0 .595.35 1.105.854 1.348l-.45 2.162A1.497 1.497 0 0 0 12 14.5c0 .827.673 1.5 1.5 1.5s1.5-.673 1.5-1.5c0-.578-.333-1.076-.813-1.326l.456-2.188A1.497 1.497 0 0 0 16 9.5zM8 11H7v-1h1v1zm3-3h-1V7h1v1zm3 2V9h1v1h-1z"/></svg>
